2 Export/Icons/Rounded/1 Player/Skip Next.svg

<svg xmlns="http://www.w3.org/2000/svg" xmlns:xlink="http://www.w3.org/1999/xlink" width="24" height="24" viewBox="0 0 24 24">
  <defs>
    <path id="skip-next-a" d="M7.58 16.89l5.77-4.07c.56-.4.56-1.24 0-1.63L7.58 7.11C6.91 6.65 6 7.12 6 7.93v8.14c0 .81.91 1.28 1.58.82zM16 7v10c0 .55.45 1 1 1s1-.45 1-1V7c0-.55-.45-1-1-1s-1 .45-1 1z"/>
  </defs>
  <g fill="none" fill-rule="evenodd">
    <polygon points="0 0 24 0 24 24 0 24"/>
    <mask id="skip-next-b" fill="#fff">
      <use xlink:href="#skip-next-a"/>
    </mask>
    <use fill="#000" xlink:href="#skip-next-a"/>
    <g fill="#000" mask="url(#skip-next-b)">
      <rect width="24" height="24"/>
    </g>
  </g>
</svg>

<svg xmlns="http://www.w3.org/2000/svg" xmlns:xlink="http://www.w3.org/1999/xlink" width="24" height="24" viewBox="0 0 24 24">
  <defs>
    <path id="skip-next-a" d="M7.58,16.89 L13.35,12.82 C13.91,12.42 13.91,11.58 13.35,11.19 L7.58,7.11 C6.91,6.65 6,7.12 6,7.93 L6,16.07 C6,16.88 6.91,17.35 7.58,16.89 Z M16,7 L16,17 C16,17.55 16.45,18 17,18 C17.55,18 18,17.55 18,17 L18,7 C18,6.45 17.55,6 17,6 C16.45,6 16,6.45 16,7 Z"/>
  </defs>
  <g fill="none" fill-rule="evenodd">
    <polygon points="0 0 24 0 24 24 0 24"/>
    <mask id="skip-next-b" fill="#fff">
      <use xlink:href="#skip-next-a"/>
    </mask>
    <use fill="#000" xlink:href="#skip-next-a"/>
    <g fill="#000" mask="url(#skip-next-b)">
      <rect width="24" height="24"/>
    </g>
  </g>
</svg>
